source/img/footer/htmlacademy.svg

<svg width="29" height="35" viewBox="0 0 29 35" fill="none" xmlns="http://www.w3.org/2000/svg">
<path d="M14.65 0.449951H14.55L1.05 1.84995V26.55L14.55 34.5499L27.95 26.55V1.84995L14.65 0.449951ZM26.05 12.55L14.55 5.74995V5.64995H14.45L14.35 5.54995V5.64995L2.95 12.55V3.54995L14.45 2.34995L26.05 3.54995V12.55ZM14.45 7.24995L25.95 13.95L21.45 16.55L14.35 12.35V13.75L20.25 17.25L19.35 17.75L14.35 14.75V16.15L18.15 18.45L17.35 18.95L14.35 17.15V18.55L16.25 19.65L14.45 20.75L3.05 14.05L14.45 7.24995ZM2.95 15.55L14.35 22.35V23.35L6.45 18.65V20.05L14.45 24.85V25.95L6.45 21.25V22.65L14.45 27.45L22.55 22.55V17.35L25.95 15.35V25.35L14.45 32.25L2.95 25.45V15.55Z" fill="black"/>
</svg>

<svg xmlns="http://www.w3.org/2000/svg" fill="none" viewBox="0 0 29 35">
  <path fill="currentColor" d="M14.65.45h-.1l-13.5 1.4v24.7l13.5 8 13.4-8V1.85L14.65.45Zm11.4 12.1-11.5-6.8v-.1h-.1l-.1-.1v.1l-11.4 6.9v-9l11.5-1.2 11.6 1.2v9Zm-11.6-5.3 11.5 6.7-4.5 2.6-7.1-4.2v1.4l5.9 3.5-.9.5-5-3v1.4l3.8 2.3-.8.5-3-1.8v1.4l1.9 1.1-1.8 1.1-11.4-6.7 11.4-6.8Zm-11.5 8.3 11.4 6.8v1l-7.9-4.7v1.4l8 4.8v1.1l-8-4.7v1.4l8 4.8 8.1-4.9v-5.2l3.4-2v10l-11.5 6.9-11.5-6.8v-9.9Z"/>
</svg>
